X:1
T: Christine McWilliam
C:
R:Reel
Q: 232
K:G
M:4/4
L:1/8
|:D2|G2 Bd ed Bd|gf ga gf ed|e2 fg d2 Bd|cB AG GF ED|
G2 Bd ed Bd|gf ga gf ef|g2 G2 AB cd|B2 G2 G2:|
|:AG|F2 DF A2 dc|B2 GB d2 gf|e2 ^cd ef ga|f2 d2 d2 ef|
|1g2 ag f2 gf|eg fe d2 cB|e2 E2 A2 AG|FG EF D2:|
|2g2 ag f2 gf|eg fe d2 ef|g2 G2 AB cd|B2 G2 G2||
